X:1243
T:Baudimic - bourree
C:Gilles Chabenat
Z:abc transcription Simon Wascher
N:please mail errors to: simon.wascher@chello.at
M:2/4
L:1/8
K:D
F3/2G/2 AG/2A/2|B3/2A/2 GF|E3/2A/2 BA|AA BA|
D3/2E/2 FD|G3/2F/2 ED|1E3/2F/2 GA|AG/2F/2 ED:|2AD ED|D4||
|:d3/2c/2 Ac|BG EA|AB cA|Bc ed|
dc A3/2c/2|1BG EF|FE DA|GE cd:|2BG ED|D3/2E/2 FD|E2 A2|]


